ufans-frontend-package/public/assets/images/new-home/icon/store-icon-1.svg

<svg width="24" height="24" viewBox="0 0 24 24" fill="none" xmlns="http://www.w3.org/2000/svg">
<path d="M23.79 5.4555C23.6119 5.2365 23.3447 5.10938 23.0625 5.10938H6.08137L6.01181 4.47037L6.00933 4.44984C5.67652 1.91306 3.49608 0 0.9375 0C0.419719 0 0 0.419719 0 0.9375C0 1.45528 0.419719 1.875 0.9375 1.875C2.55497 1.875 3.93389 3.08198 4.149 4.68413L5.26336 14.9217C4.28883 15.364 3.60938 16.3463 3.60938 17.4844C3.60938 17.4922 3.60947 17.5 3.60966 17.5078C3.60947 17.5156 3.60938 17.5234 3.60938 17.5312C3.60938 19.0821 4.87106 20.3438 6.42188 20.3438H6.80334C6.708 20.6233 6.65625 20.9229 6.65625 21.2344C6.65625 22.7593 7.89689 24 9.42188 24C10.9469 24 12.1875 22.7593 12.1875 21.2344C12.1875 20.9229 12.1357 20.6233 12.0404 20.3438H16.0846C15.9893 20.6233 15.9375 20.9229 15.9375 21.2344C15.9375 22.7593 17.1782 24 18.7032 24C20.2282 24 21.4688 22.7593 21.4688 21.2344C21.4688 19.7094 20.2282 18.4688 18.7032 18.4688H6.42188C5.90494 18.4688 5.48438 18.0482 5.48438 17.5312C5.48438 17.5234 5.48428 17.5156 5.48409 17.5078C5.48428 17.5 5.48438 17.4922 5.48438 17.4844C5.48438 16.9674 5.90494 16.5469 6.42188 16.5469H18.3905C20.0547 16.5469 21.582 15.5172 22.2814 13.9237C22.4895 13.4496 22.2739 12.8965 21.7998 12.6884C21.3257 12.4803 20.7727 12.696 20.5645 13.17C20.1703 14.0684 19.2966 14.6719 18.3905 14.6719H7.12223L6.28547 6.98438H21.9093L21.4506 9.18356C21.3449 9.69042 21.67 10.187 22.1769 10.2927C22.2414 10.3062 22.3058 10.3127 22.3693 10.3127C22.8039 10.3127 23.1938 10.0087 23.286 9.56644L23.9802 6.23831C24.0379 5.96203 23.968 5.6745 23.79 5.4555ZM18.7031 20.3438C19.1942 20.3438 19.5938 20.7433 19.5938 21.2344C19.5938 21.7255 19.1942 22.125 18.7031 22.125C18.212 22.125 17.8125 21.7255 17.8125 21.2344C17.8125 20.7433 18.212 20.3438 18.7031 20.3438ZM9.42188 20.3438C9.91298 20.3438 10.3125 20.7433 10.3125 21.2344C10.3125 21.7255 9.91298 22.125 9.42188 22.125C8.93077 22.125 8.53125 21.7255 8.53125 21.2344C8.53125 20.7433 8.93077 20.3438 9.42188 20.3438Z" fill="#6661E7"/>
</svg>

<svg xmlns="http://www.w3.org/2000/svg" width="24" height="24" viewBox="0 0 24 24">
  <path id="store-icon-1" d="M23.79,5.456a.938.938,0,0,0-.728-.346H6.081l-.07-.639,0-.021A5.129,5.129,0,0,0,.938,0a.938.938,0,0,0,0,1.875A3.249,3.249,0,0,1,4.149,4.684L5.263,14.922a2.816,2.816,0,0,0-1.654,2.563q0,.012,0,.023t0,.023a2.816,2.816,0,0,0,2.812,2.813H6.8a2.766,2.766,0,1,0,5.237,0h4.044A2.766,2.766,0,1,0,18.7,18.469H6.422a.939.939,0,0,1-.937-.938q0-.012,0-.023t0-.023a.939.939,0,0,1,.938-.937H18.39a4.293,4.293,0,0,0,3.891-2.623.938.938,0,0,0-1.717-.754,2.451,2.451,0,0,1-2.174,1.5H7.122L6.285,6.984H21.909l-.459,2.2a.937.937,0,1,0,1.835.383l.694-3.328A.937.937,0,0,0,23.79,5.456ZM18.7,20.344a.891.891,0,1,1-.891.891A.892.892,0,0,1,18.7,20.344Zm-9.281,0a.891.891,0,1,1-.891.891A.892.892,0,0,1,9.422,20.344Z" fill="#e44499"/>
</svg>
